polaris-icons/icons/new-icons/FoodMajor.svg

<svg width="20" height="20" viewBox="0 0 20 20" fill="none" xmlns="http://www.w3.org/2000/svg">
<path fill-rule="evenodd" clip-rule="evenodd" d="M7.25 4C7.25 3.58579 7.58579 3.25 8 3.25C8.59153 3.25 9.10014 3.36086 9.52048 3.59438C9.94874 3.8323 10.2363 4.17047 10.4208 4.53959C10.5619 4.82167 10.6426 5.12514 10.6887 5.41674L11.1674 5.22525C12.005 4.89022 12.9302 4.8429 13.7976 5.09073C15.5452 5.59003 16.75 7.18733 16.75 9.00483V9.85718C16.75 11.3681 16.4617 12.8652 15.9005 14.2681L15.7568 14.6274C15.023 16.462 12.878 17.2775 11.1107 16.3939L10.925 16.301C10.3427 16.0099 9.65731 16.0099 9.07501 16.301L8.88929 16.3939C7.12204 17.2775 4.97701 16.462 4.2432 14.6274L4.12167 14.3236C3.54585 12.8841 3.25 11.3478 3.25 9.79739V8.66228C3.25 7.04816 4.28286 5.61514 5.81415 5.10472C6.5839 4.84813 7.4161 4.84813 8.18585 5.10472L9.16193 5.43007C9.14011 5.35126 9.11296 5.27797 9.07918 5.21041C9.01374 5.07953 8.92626 4.9802 8.79202 4.90562C8.64986 4.82664 8.40847 4.75 8 4.75C7.58579 4.75 7.25 4.41421 7.25 4ZM7.71151 6.52774C7.24966 6.37379 6.75034 6.37379 6.28849 6.52774C5.36972 6.834 4.75 7.69381 4.75 8.66228V9.79739C4.75 11.157 5.00943 12.5041 5.51439 13.7665L5.63592 14.0704C6.04381 15.0901 7.23614 15.5434 8.21847 15.0522L8.40419 14.9594C9.40878 14.4571 10.5912 14.4571 11.5958 14.9594L11.7815 15.0522C12.7639 15.5434 13.9562 15.0901 14.3641 14.0704L14.5078 13.711C14.9981 12.4853 15.25 11.1773 15.25 9.85718V9.00483C15.25 7.85705 14.4891 6.84833 13.3855 6.53301C12.8377 6.3765 12.2535 6.40639 11.7245 6.61797L10.2785 7.19636C10.1138 7.26224 9.93112 7.26761 9.76283 7.21151L7.71151 6.52774Z" fill="#4A4A4A"/>
</svg>

<svg viewBox="0 0 20 20" xmlns="http://www.w3.org/2000/svg"><path fill-rule="evenodd" d="M7.25 4a.75.75 0 0 1 .75-.75c.592 0 1.1.11 1.52.344.429.238.716.576.9.946.142.282.223.585.269.877l.478-.192a4.07 4.07 0 0 1 5.583 3.78v.852c0 1.511-.288 3.008-.85 4.411l-.143.36a3.377 3.377 0 0 1-4.646 1.766l-.186-.093a2.069 2.069 0 0 0-1.85 0l-.186.093a3.377 3.377 0 0 1-4.646-1.767l-.121-.303a12.187 12.187 0 0 1-.872-4.527v-1.135a3.75 3.75 0 0 1 4.936-3.557l.976.325a1.214 1.214 0 0 0-.083-.22.676.676 0 0 0-.287-.304c-.142-.08-.384-.156-.792-.156a.75.75 0 0 1-.75-.75Zm.462 2.528a2.25 2.25 0 0 0-2.962 2.134v1.135c0 1.36.26 2.707.764 3.97l.122.303a1.877 1.877 0 0 0 2.582.982l.186-.093a3.568 3.568 0 0 1 3.192 0l.185.093a1.877 1.877 0 0 0 2.583-.982l.144-.359c.49-1.226.742-2.534.742-3.854v-.852a2.57 2.57 0 0 0-3.525-2.387l-1.447.578a.75.75 0 0 1-.515.016l-2.051-.684Z" fill="#5C5F62"/></svg>
